rospo-icon-theme-classic-common/48x48/places/folder-grey-linux.svg

<svg height="48" width="48" xmlns="http://www.w3.org/2000/svg"><rect height="26" opacity=".2" rx="2" width="40" x="4" y="17"/><path d="m4 34c0 1.108.892 2 2 2h36c1.108 0 2-.892 2-2v-22c0-1.108-.892-2-2-2h-20v-2c0-1.108-.892-2-2-2h-14c-1.108 0-2 .892-2 2" fill="#727272"/><rect height="26" opacity=".2" rx="2" width="40" x="4" y="15"/><rect fill="#e4e4e4" height="16" rx="2" width="36" x="6" y="13"/><rect fill="#8e8e8e" height="26" rx="2" width="40" x="4" y="16"/><path d="m6 6c-1.108 0-2 .892-2 2v1c0-1.108.892-2 2-2h14c1.108 0 2 .892 2 2v-1c0-1.108-.892-2-2-2zm16 4v1h20c1.108 0 2 .892 2 2v-1c0-1.108-.892-2-2-2z" fill="#fff" opacity=".1"/><path d="m24.56 32.076c-1.12.521-1.663.515-2.362.465-.835-.06-1.506-.289-1.801-.489-.182-.123-.429-.075-.552.107s-.076.429.106.552c.475.321 1.313.56 2.19.623.148.011-.188.017-.013.017.763 0 1.731-.072 2.767-.554.199-.093.286-.329.193-.528-.093-.2-.329-.286-.528-.193zm4.419-.589c.038-3.455.394-9.982-6.219-9.455-6.529.526-4.298 7.423-4.396 9.733-.086 1.221-.791 2.715-1.364 4.235h2.064c.182-.644.315-1.281.373-1.888.106.074.22.145.341.214.198.117.368.272.548.435.42.383.896.817 1.827.872.063.003-.374.005-.312.005.942 0 1.586-.412 2.103-.743.248-.159.463-.296.664-.362.573-.179 1.074-.469 1.448-.837.058-.058.113-.117.163-.177.209.764.494 1.623.811 2.481h3.968c-.905-1.397-2.038-2.766-2.019-4.513zm-9.983-1.88c-.065-1.127.475-2.076 1.205-2.118.73-.043 1.374.837 1.439 1.964 0 0 .001.001.001.001.003.06.004.121.004.18-.231.058-.44.143-.627.241 0-.008-.001-.016-.002-.025-.062-.64-.404-1.123-.763-1.079-.359.043-.6.597-.537 1.238.027.279.107.528.219.717-.028.022-.107.079-.197.145-.068.05-.151.111-.25.184-.272-.357-.459-.869-.492-1.448zm6.898 2.787c-.026.595-.805 1.156-1.525 1.381l-.004.001c-.299.097-.566.268-.849.449-.475.304-.966.618-1.675.618-.046 0 .405-.001.359-.004-.65-.038-.954-.315-1.338-.666-.203-.184-.413-.375-.684-.534l-.005-.004c-.584-.329-.947-.739-.97-1.096-.011-.177.068-.331.235-.456.364-.273.608-.452.769-.57.18-.131.234-.171.274-.209.028-.027.06-.057.093-.089.334-.325.394-.869 1.252-.869.525 0 1.106.202 1.725.6.292.19.545.277.866.388.221.077.472.163.807.306l.005.003c.313.128.682.363.665.751zm-.172-1.4c-.06-.03-.123-.059-.188-.086-.302-.129-.545-.217-.746-.287.111-.217.18-.488.187-.782v-.001c.015-.716-.346-1.297-.807-1.298s-.847.578-.862 1.294v.001.07c-.284-.131-.563-.226-.837-.284-.001-.027-.002-.054-.003-.081v-.001c-.026-1.304.774-2.384 1.788-2.411 1.013-.028 1.856 1.007 1.883 2.312.012.59-.146 1.133-.415 1.554z" fill="#323232"/></svg>

<svg xmlns="http://www.w3.org/2000/svg" width="48" height="48" version="1">
 <rect style="opacity:0.2" width="40" height="26" x="4" y="17" rx="2" ry="2"/>
 <path style="fill:#727272" d="M 4,34 C 4,35.108 4.892,36 6,36 H 42 C 43.108,36 44,35.108 44,34 V 12 C 44,10.892 43.108,10 42,10 H 22 V 8 C 22,6.892 21.108,6 20,6 H 6 C 4.892,6 4,6.892 4,8"/>
 <rect style="opacity:0.2" width="40" height="26" x="4" y="15" rx="2" ry="2"/>
 <rect style="fill:#dcdcdc" width="36" height="16" x="6" y="13" rx="2" ry="2"/>
 <rect style="fill:#8e8e8e" width="40" height="26" x="4" y="16" rx="2" ry="2"/>
 <path style="opacity:0.1;fill:#ffffff" d="M 6,6 C 4.892,6 4,6.892 4,8 V 9 C 4,7.892 4.892,7 6,7 H 20 C 21.108,7 22,7.892 22,9 V 8 C 22,6.892 21.108,6 20,6 Z M 22,10 V 11 H 42 C 43.108,11 44,11.892 44,13 V 12 C 44,10.892 43.108,10 42,10 Z"/>
 <path style="fill:#323232" d="M 24.56,32.076 C 23.44,32.597 22.897,32.591 22.198,32.541 21.363,32.481 20.692,32.252 20.397,32.052 20.215,31.929 19.968,31.977 19.845,32.159 19.722,32.341 19.769,32.588 19.951,32.711 20.426,33.032 21.264,33.271 22.141,33.334 22.289,33.345 21.953,33.351 22.128,33.351 22.891,33.351 23.859,33.279 24.895,32.797 25.094,32.704 25.181,32.468 25.088,32.269 24.995,32.069 24.759,31.983 24.56,32.076 Z M 28.979,31.487 C 29.017,28.032 29.373,21.505 22.76,22.032 16.231,22.558 18.462,29.455 18.364,31.765 18.278,32.986 17.573,34.48 17,36 H 19.064 C 19.246,35.356 19.379,34.719 19.437,34.112 19.543,34.186 19.657,34.257 19.778,34.326 19.976,34.443 20.146,34.598 20.326,34.761 20.746,35.144 21.222,35.578 22.153,35.633 22.216,35.636 21.779,35.638 21.841,35.638 22.783,35.638 23.427,35.226 23.944,34.895 24.192,34.736 24.407,34.599 24.608,34.533 25.181,34.354 25.682,34.064 26.056,33.696 26.114,33.638 26.169,33.579 26.219,33.519 26.428,34.283 26.713,35.142 27.03,36 H 30.998 C 30.093,34.603 28.96,33.234 28.979,31.487 Z M 18.996,29.607 C 18.996,29.607 18.996,29.607 18.996,29.607 18.931,28.48 19.471,27.531 20.201,27.489 20.931,27.446 21.575,28.326 21.64,29.453 21.64,29.453 21.641,29.454 21.641,29.454 21.644,29.514 21.645,29.575 21.645,29.634 21.414,29.692 21.205,29.777 21.018,29.875 21.018,29.867 21.017,29.859 21.016,29.85 V 29.85 C 20.954,29.21 20.612,28.727 20.253,28.771 19.894,28.814 19.653,29.368 19.716,30.009 19.716,30.009 19.716,30.009 19.716,30.009 19.743,30.288 19.823,30.537 19.935,30.726 19.907,30.748 19.828,30.805 19.738,30.871 19.67,30.921 19.587,30.982 19.488,31.055 19.216,30.698 19.029,30.186 18.996,29.607 Z M 25.894,32.394 C 25.868,32.989 25.089,33.55 24.369,33.775 L 24.365,33.776 C 24.066,33.873 23.799,34.044 23.516,34.225 23.041,34.529 22.55,34.843 21.841,34.843 21.795,34.843 22.246,34.842 22.2,34.839 21.55,34.801 21.246,34.524 20.862,34.173 20.659,33.989 20.449,33.798 20.178,33.639 L 20.173,33.635 C 19.589,33.306 19.226,32.896 19.203,32.539 19.192,32.362 19.271,32.208 19.438,32.083 19.802,31.81 20.046,31.631 20.207,31.513 20.387,31.382 20.441,31.342 20.481,31.304 20.509,31.277 20.541,31.247 20.574,31.215 20.908,30.89 20.968,30.346 21.826,30.346 22.351,30.346 22.932,30.548 23.551,30.946 23.843,31.136 24.096,31.223 24.417,31.334 24.638,31.411 24.889,31.497 25.224,31.64 L 25.229,31.643 C 25.542,31.771 25.911,32.006 25.894,32.394 Z M 25.722,30.994 C 25.662,30.964 25.599,30.935 25.534,30.908 25.232,30.779 24.989,30.691 24.788,30.621 24.899,30.404 24.968,30.133 24.975,29.839 V 29.838 C 24.99,29.122 24.629,28.541 24.168,28.54 23.707,28.539 23.321,29.118 23.306,29.834 V 29.835 C 23.306,29.858 23.306,29.881 23.306,29.905 23.022,29.774 22.743,29.679 22.469,29.621 22.468,29.594 22.467,29.567 22.466,29.54 V 29.539 C 22.44,28.235 23.24,27.155 24.254,27.128 25.267,27.1 26.11,28.135 26.137,29.44 V 29.44 C 26.149,30.03 25.991,30.573 25.722,30.994 Z"/>
</svg>
